packages/assets/static/images/icons/thumbs-down.svg

<svg width="24" height="24" viewBox="0 0 24 24" xmlns="http://www.w3.org/2000/svg">
<path d="M22.4831 14.7188L21.3581 5.71875C21.2896 5.17489 21.0249 4.67475 20.6137 4.31224C20.2025 3.94974 19.6732 3.74981 19.125 3.75H3C2.60218 3.75 2.22064 3.90804 1.93934 4.18934C1.65804 4.47064 1.5 4.85218 1.5 5.25V13.5C1.5 13.8978 1.65804 14.2794 1.93934 14.5607C2.22064 14.842 2.60218 15 3 15H7.03687L10.5787 22.0856C10.6411 22.2102 10.7369 22.315 10.8555 22.3882C10.9741 22.4614 11.1107 22.5001 11.25 22.5C12.2446 22.5 13.1984 22.1049 13.9017 21.4016C14.6049 20.6984 15 19.7446 15 18.75V17.25H20.25C20.5693 17.2501 20.8849 17.1823 21.176 17.051C21.467 16.9197 21.7268 16.728 21.938 16.4885C22.1492 16.2491 22.3071 15.9675 22.4011 15.6623C22.4951 15.3572 22.523 15.0355 22.4831 14.7188ZM6.75 13.5H3V5.25H6.75V13.5ZM20.8125 15.4959C20.7426 15.5763 20.6561 15.6407 20.5591 15.6845C20.462 15.7284 20.3565 15.7507 20.25 15.75H14.25C14.0511 15.75 13.8603 15.829 13.7197 15.9697C13.579 16.1103 13.5 16.3011 13.5 16.5V18.75C13.5001 19.2702 13.32 19.7744 12.9903 20.1767C12.6606 20.5791 12.2016 20.8548 11.6916 20.9569L8.25 14.0728V5.25H19.125C19.3077 5.24994 19.4842 5.31658 19.6212 5.43742C19.7583 5.55825 19.8465 5.72496 19.8694 5.90625L20.9944 14.9062C21.0084 15.0118 20.9994 15.1192 20.9681 15.221C20.9367 15.3228 20.8836 15.4166 20.8125 15.4959Z"/>
</svg>

<svg viewBox="0 0 24 24" xmlns="http://www.w3.org/2000/svg" aria-hidden="true" fill="currentColor"><path d="m22.483 14.719-1.125-9a2.25 2.25 0 0 0-2.233-1.969H3a1.5 1.5 0 0 0-1.5 1.5v8.25A1.5 1.5 0 0 0 3 15h4.037l3.542 7.086a.75.75 0 0 0 .671.414A3.75 3.75 0 0 0 15 18.75v-1.5h5.25a2.25 2.25 0 0 0 2.233-2.531M6.75 13.5H3V5.25h3.75zm14.063 1.996a.74.74 0 0 1-.563.254h-6a.75.75 0 0 0-.75.75v2.25a2.25 2.25 0 0 1-1.808 2.207L8.25 14.073V5.25h10.875a.75.75 0 0 1 .744.656l1.125 9a.74.74 0 0 1-.181.59"/></svg>
